svg/blobs-icons/no-decorations/color-picker.svg

<svg xmlns="http://www.w3.org/2000/svg" xmlns:xlink="http://www.w3.org/1999/xlink" preserveAspectRatio="xMidYMid" width="186" height="216" viewBox="0 0 186 216"><defs><style>.cls-3{fill:#0cb04a}.cls-4{fill:#ff3a2f}.cls-6{fill:#fbb713}</style></defs><g id="group-121svg"><path d="M8.046 211.801C8.046 213.795 6.483 215.411 4.553 215.411 2.625 215.411 1.061 213.795 1.061 211.801V200.739C1.061 198.744 2.625 197.128 4.553 197.128 6.483 197.128 8.046 198.744 8.046 200.739v11.062z" id="path-1" class="cls-3" fill-rule="evenodd"/><path d="M154.282 46.988C156.438 46.874 158.56 46.009 160.197 44.371l22.547-22.545C186.263 18.307 186.263 12.549 182.744 9.029l-6.399-6.396C172.826-.887 167.067-.887 163.548 2.633L141.002 25.178C139.365 26.815 138.499 28.938 138.385 31.093l-24.5-24.501S91.948 28.529 91.948 28.529s64.897 64.895 64.897 64.895 21.938-21.936 21.938-21.936-24.501-24.5-24.501-24.5z" id="path-2" class="cls-4" fill-rule="evenodd"/><path d="M38.019 126.023S79.76 129.68 79.76 129.68s-52.1 52.099-52.1 52.099S.004 186.888.004 186.888s4.957-27.807 4.957-27.807 33.058-33.058 33.058-33.058z" id="path-3" class="cls-3" fill-rule="evenodd"/><path d="M77.746 131.999s58.838-58.836 58.838-58.836-22.851-22.85-22.851-22.85-75.714 75.71-75.714 75.71 39.727 5.976 39.727 5.976z" id="path-4" class="cls-6" fill-rule="evenodd"/></g></svg>

<svg xmlns="http://www.w3.org/2000/svg" xmlns:xlink="http://www.w3.org/1999/xlink" preserveAspectRatio="xMidYMid" width="186" height="216" viewBox="0 0 186 216">
  <defs>
    <style>

      .cls-3 {
        fill: #0cb04a;
      }

      .cls-4 {
        fill: #ff3a2f;
      }

      .cls-6 {
        fill: #fbb713;
      }
    </style>
  </defs>
  <g id="group-121svg">
    <path d="M8.046,211.801 C8.046,213.795 6.483,215.411 4.553,215.411 C2.625,215.411 1.061,213.795 1.061,211.801 C1.061,211.801 1.061,200.739 1.061,200.739 C1.061,198.744 2.625,197.128 4.553,197.128 C6.483,197.128 8.046,198.744 8.046,200.739 C8.046,200.739 8.046,211.801 8.046,211.801 Z" id="path-1" class="cls-3" fill-rule="evenodd"/>
    <path d="M154.282,46.988 C156.438,46.874 158.560,46.009 160.197,44.371 C160.197,44.371 182.744,21.826 182.744,21.826 C186.263,18.307 186.263,12.549 182.744,9.029 C182.744,9.029 176.345,2.633 176.345,2.633 C172.826,-0.887 167.067,-0.887 163.548,2.633 C163.548,2.633 141.002,25.178 141.002,25.178 C139.365,26.815 138.499,28.938 138.385,31.093 C138.385,31.093 113.885,6.592 113.885,6.592 C113.885,6.592 91.948,28.529 91.948,28.529 C91.948,28.529 156.845,93.424 156.845,93.424 C156.845,93.424 178.783,71.488 178.783,71.488 C178.783,71.488 154.282,46.988 154.282,46.988 Z" id="path-2" class="cls-4" fill-rule="evenodd"/>
    <path d="M38.019,126.023 C38.019,126.023 79.760,129.680 79.760,129.680 C79.760,129.680 27.660,181.779 27.660,181.779 C27.660,181.779 0.004,186.888 0.004,186.888 C0.004,186.888 4.961,159.081 4.961,159.081 C4.961,159.081 38.019,126.023 38.019,126.023 Z" id="path-3" class="cls-3" fill-rule="evenodd"/>
    <path d="M77.746,131.999 C77.746,131.999 136.584,73.163 136.584,73.163 C136.584,73.163 113.733,50.313 113.733,50.313 C113.733,50.313 38.019,126.023 38.019,126.023 C38.019,126.023 77.746,131.999 77.746,131.999 Z" id="path-4" class="cls-6" fill-rule="evenodd"/>
  </g>
</svg>
